dist/img/sprites/notif.svg

<svg width="66" height="71" viewBox="0 0 66 71" fill="none" xmlns="http://www.w3.org/2000/svg">
<g filter="url(#filter0_f_1910_11138)">
<path d="M40.698 61.3643C41.0613 60.7149 41.3208 59.9829 41.5906 59.2097C41.7256 58.8283 41.8605 58.4468 42.0058 58.0654L42.1823 57.6015H46.6557C49.2921 57.6015 51.918 57.6118 54.5544 57.6015C56.4226 57.5911 58.1767 56.7561 59.3496 55.3334C60.5328 53.8901 61.0103 52.0035 60.6366 50.1582C60.0969 47.4468 57.6993 45.4571 54.6789 45.1891C53.1739 45.0551 52.7795 44.6324 52.7795 43.1066V40.0241C52.7795 37.4571 52.7795 34.8798 52.7795 32.3128C52.7795 31.5396 52.7691 30.787 52.6757 30.0654C51.7104 22.5396 47.6937 17.1066 40.7499 13.9107C40.5735 13.8283 40.3866 13.7561 40.2206 13.6839L39.5148 13.385L39.5874 12.4468C39.6082 12.1891 39.6289 11.9417 39.6393 11.7046C39.6808 10.0757 39.0685 8.53961 37.9267 7.36435C36.7746 6.18909 35.2385 5.5293 33.5986 5.5293C33.5986 5.5293 33.5778 5.5293 33.5674 5.5293C31.9275 5.5293 30.4018 6.16847 29.2497 7.32311C28.0976 8.47775 27.4748 10.0138 27.4956 11.6324C27.4956 11.7355 27.5163 11.8489 27.5267 11.9623C27.5786 12.354 27.6409 12.8283 27.371 13.2509C27.1012 13.6633 26.6548 13.8076 26.2916 13.921C26.1774 13.952 26.0632 13.9932 25.9594 14.0345C18.4656 17.5808 14.563 23.4984 14.3658 31.6221C14.3035 34.2716 14.3139 36.9623 14.3346 39.5705C14.3346 40.818 14.3554 42.0551 14.345 43.3025C14.345 44.5808 13.8572 45.1066 12.5909 45.1788C10.9198 45.2716 9.52902 45.8489 8.34578 46.9314C6.47751 48.6324 5.86513 51.2613 6.76813 53.6118C7.6815 55.9829 9.96495 57.5808 12.4664 57.6015C15.1131 57.6221 17.7598 57.6221 20.4065 57.6118H25.1706L25.3471 58.3334C25.3782 58.4571 25.4093 58.5705 25.4301 58.6839C26.1255 62.0757 28.0976 64.2303 31.4708 65.2613C31.7303 65.3437 31.9898 65.3953 32.2493 65.4571L32.5607 65.5293H34.4082C34.5535 65.4777 34.6573 65.4571 34.7507 65.4365C37.4182 65.0035 39.4214 63.6324 40.698 61.3643ZM31.3255 8.83858C32.4569 7.92105 34.0138 7.78703 35.3008 8.49837C36.5463 9.18909 37.221 10.5293 37.0341 11.9314L36.9511 12.5602H30.3187L30.1527 12.0654C29.7998 11.0241 30.298 9.66332 31.3255 8.82827V8.83858ZM12.8711 55.0963C11.3143 55.0963 10.1518 54.4777 9.41485 53.2613C8.79209 52.2303 8.72981 51.0138 9.22802 49.921C9.74698 48.7973 10.8057 47.9932 12.0616 47.7767C12.3314 47.7355 12.6013 47.7149 12.8711 47.6942C13.1203 47.6736 13.359 47.6633 13.5977 47.6118C15.5594 47.2303 16.8776 45.6221 16.8879 43.6118C16.8879 42.1685 16.8879 40.7355 16.8776 39.2922C16.8568 36.6736 16.8464 33.9623 16.9191 31.2922C17.1059 24.7664 20.2716 19.7458 26.0736 16.7767C30.2461 14.6324 34.9583 14.3747 39.328 16.0241C43.7807 17.7149 47.3408 21.2819 49.0949 25.8076C49.8733 27.8283 50.2677 29.9623 50.2573 32.1685C50.247 35.9623 50.247 39.7664 50.2573 43.5602C50.2573 45.6015 51.5444 47.1891 53.5061 47.6015C53.7344 47.653 53.9627 47.6633 54.1911 47.6736C54.3883 47.6839 54.5751 47.6942 54.7723 47.7252C56.9416 48.0035 58.3636 49.6427 58.2286 51.6942C58.0937 53.653 56.4538 55.086 54.3156 55.086C49.1987 55.086 44.0817 55.086 38.9543 55.086H28.2014C23.0947 55.086 17.9881 55.086 12.8711 55.086V55.0963ZM33.5467 63.0138H33.4948C30.7962 62.9829 28.2429 60.8489 28.0249 58.4262L27.9523 57.6427H39.1826L39.0996 58.4365C38.8297 60.9314 36.2972 63.0138 33.5467 63.0138Z" fill="#89B21D" fill-opacity="0.35"/>
<path d="M15.2272 13.0756C15.03 12.9622 14.812 12.9106 14.6044 12.9106C14.2619 12.9106 13.909 13.0653 13.6184 13.3539C11.0547 15.9106 9.12415 18.8076 7.87863 21.9416C7.29739 23.3952 6.86146 24.9106 6.50856 26.189C6.38401 26.6529 6.44629 27.0859 6.69539 27.4055C6.92374 27.6941 7.26625 27.8591 7.68142 27.8591C8.37684 27.8591 8.80239 27.4777 8.98921 26.6941C10.0271 22.2921 12.1757 18.4055 15.3725 15.1581C15.5697 14.9622 15.7254 14.6941 15.8084 14.4467C15.9641 13.921 15.7358 13.3643 15.2272 13.0756Z" fill="#89B21D" fill-opacity="0.35"/>
<path d="M60.6579 26.5602V26.4984C60.6372 26.4056 60.6268 26.2716 60.5957 26.1479C60.1286 24.1066 59.4228 22.1273 58.499 20.2819C57.2224 17.7252 55.5409 15.3953 53.4858 13.3334C53.1848 13.0345 52.8838 12.8901 52.5413 12.8901C52.396 12.8901 52.2403 12.9211 52.0846 12.9726C51.5864 13.1479 51.327 13.4778 51.2543 14.0242C51.2024 14.4365 51.3685 14.8077 51.8044 15.2407C54.1397 17.5809 55.8938 20.2922 57.0459 23.2819C57.3573 24.086 57.596 24.9211 57.8244 25.7252C57.9386 26.1273 58.0527 26.5293 58.1773 26.9314C58.3745 27.5809 58.9557 27.9417 59.6096 27.8489C60.2012 27.7561 60.6268 27.2303 60.6476 26.5602H60.6579Z" fill="#89B21D" fill-opacity="0.35"/>
</g>
<path d="M37.1687 57.835C37.532 57.1856 37.7915 56.4536 38.0613 55.6804C38.1963 55.299 38.3312 54.9175 38.4765 54.5361L38.653 54.0722H43.1264C45.7628 54.0722 48.3887 54.0825 51.0251 54.0722C52.8933 54.0619 54.6474 53.2268 55.8203 51.8041C57.0035 50.3608 57.481 48.4742 57.1073 46.6289C56.5676 43.9175 54.17 41.9278 51.1496 41.6598C49.6446 41.5258 49.2502 41.1031 49.2502 39.5773V36.4948C49.2502 33.9278 49.2502 31.3505 49.2502 28.7835C49.2502 28.0103 49.2398 27.2577 49.1464 26.5361C48.1811 19.0103 44.1644 13.5773 37.2206 10.3814C37.0442 10.299 36.8573 10.2268 36.6913 10.1546L35.9855 9.85567L36.0581 8.91753C36.0789 8.65979 36.0997 8.41237 36.11 8.17526C36.1515 6.54639 35.5392 5.01031 34.3974 3.83505C33.2453 2.65979 31.7092 2 30.0693 2C30.0693 2 30.0485 2 30.0381 2C28.3982 2 26.8725 2.63918 25.7204 3.79381C24.5683 4.94845 23.9455 6.48454 23.9663 8.10309C23.9663 8.20619 23.987 8.31959 23.9974 8.43299C24.0493 8.82474 24.1116 9.29897 23.8417 9.72165C23.5719 10.134 23.1255 10.2784 22.7623 10.3918C22.6481 10.4227 22.5339 10.4639 22.4301 10.5052C14.9363 14.0515 11.0337 19.9691 10.8365 28.0928C10.7742 30.7423 10.7846 33.433 10.8053 36.0412C10.8053 37.2887 10.8261 38.5258 10.8157 39.7732C10.8157 41.0515 10.3279 41.5773 9.06161 41.6495C7.39055 41.7423 5.99972 42.3196 4.81648 43.4021C2.94821 45.1031 2.33583 47.732 3.23883 50.0825C4.15221 52.4536 6.43565 54.0515 8.93706 54.0722C11.5838 54.0928 14.2305 54.0928 16.8772 54.0825H21.6413L21.8178 54.8041C21.8489 54.9278 21.88 55.0412 21.9008 55.1546C22.5962 58.5464 24.5683 60.701 27.9415 61.732C28.201 61.8144 28.4605 61.866 28.72 61.9278L29.0314 62H30.8789C31.0242 61.9485 31.128 61.9278 31.2214 61.9072C33.8889 61.4742 35.8921 60.1031 37.1687 57.835ZM27.7962 5.30928C28.9276 4.39175 30.4845 4.25773 31.7715 4.96907C33.017 5.65979 33.6917 7 33.5048 8.40206L33.4218 9.03093H26.7894L26.6234 8.53608C26.2705 7.49485 26.7687 6.13402 27.7962 5.29897V5.30928ZM9.34185 51.567C7.78496 51.567 6.62248 50.9485 5.88555 49.732C5.26279 48.701 5.20052 47.4845 5.69872 46.3918C6.21769 45.268 7.27637 44.4639 8.53227 44.2474C8.80213 44.2062 9.07199 44.1856 9.34185 44.1649C9.59095 44.1443 9.82968 44.134 10.0684 44.0825C12.0301 43.701 13.3483 42.0928 13.3586 40.0825C13.3586 38.6392 13.3586 37.2062 13.3483 35.7629C13.3275 33.1443 13.3171 30.433 13.3898 27.7629C13.5766 21.2371 16.7423 16.2165 22.5443 13.2474C26.7168 11.1031 31.429 10.8454 35.7987 12.4948C40.2514 14.1856 43.8115 17.7526 45.5656 22.2783C46.344 24.299 46.7384 26.433 46.728 28.6392C46.7177 32.433 46.7177 36.2371 46.728 40.0309C46.728 42.0722 48.0151 43.6598 49.9768 44.0722C50.2051 44.1237 50.4334 44.134 50.6618 44.1443C50.859 44.1546 51.0458 44.1649 51.243 44.1959C53.4123 44.4742 54.8343 46.1134 54.6993 48.1649C54.5644 50.1237 52.9245 51.5567 50.7863 51.5567C45.6694 51.5567 40.5524 51.5567 35.425 51.5567H24.6721C19.5654 51.5567 14.4588 51.5567 9.34185 51.5567V51.567ZM30.0174 59.4845H29.9655C27.2669 59.4536 24.7136 57.3196 24.4956 54.8969L24.423 54.1134H35.6533L35.5703 54.9072C35.3004 57.4021 32.7679 59.4845 30.0174 59.4845Z" fill="#4B8125"/>
<path d="M11.6979 9.5463C11.5007 9.43289 11.2827 9.38135 11.0751 9.38135C10.7326 9.38135 10.3797 9.53599 10.0891 9.82465C7.5254 12.3813 5.59485 15.2783 4.34933 18.4123C3.76809 19.8659 3.33216 21.3813 2.97927 22.6597C2.85472 23.1236 2.91699 23.5566 3.1661 23.8762C3.39444 24.1649 3.73696 24.3298 4.15213 24.3298C4.84754 24.3298 5.27309 23.9484 5.45992 23.1649C6.49785 18.7628 8.64636 14.8762 11.8432 11.6288C12.0404 11.4329 12.1961 11.1649 12.2791 10.9174C12.4348 10.3917 12.2065 9.83496 11.6979 9.5463Z" fill="#4B8125"/>
<path d="M57.1286 23.0309V22.9691C57.1079 22.8763 57.0975 22.7423 57.0664 22.6186C56.5993 20.5773 55.8935 18.598 54.9697 16.7526C53.6931 14.1959 52.0116 11.866 49.9566 9.80414C49.6556 9.50517 49.3546 9.36084 49.012 9.36084C48.8667 9.36084 48.711 9.39177 48.5553 9.44331C48.0571 9.61857 47.7977 9.94847 47.725 10.4949C47.6731 10.9072 47.8392 11.2784 48.2751 11.7114C50.6104 14.0516 52.3645 16.7629 53.5166 19.7526C53.828 20.5567 54.0667 21.3918 54.2951 22.1959C54.4093 22.598 54.5234 23 54.648 23.4021C54.8452 24.0516 55.4264 24.4124 56.0803 24.3196C56.672 24.2268 57.0975 23.701 57.1183 23.0309H57.1286Z" fill="#4B8125"/>
<defs>
<filter id="filter0_f_1910_11138" x="1.35742" y="0.529297" width="64.4043" height="70" filterUnits="userSpaceOnUse" color-interpolation-filters="sRGB">
<feFlood flood-opacity="0" result="BackgroundImageFix"/>
<feBlend mode="normal" in="SourceGraphic" in2="BackgroundImageFix" result="shape"/>
<feGaussianBlur stdDeviation="2.5" result="effect1_foregroundBlur_1910_11138"/>
</filter>
</defs>
</svg>

<svg width="66" height="71" viewBox="0 0 66 71" fill="none" xmlns="http://www.w3.org/2000/svg"><g filter="url(#filter0_f_1910_11138)" fill="#89B21D" fill-opacity=".35"><path d="M40.698 61.364c.363-.65.623-1.381.893-2.154.135-.382.27-.763.415-1.145l.176-.463h4.474c2.636 0 5.262.01 7.898 0a6.254 6.254 0 004.796-2.269 6.197 6.197 0 001.287-5.175c-.54-2.711-2.938-4.7-5.958-4.969-1.505-.134-1.9-.557-1.9-2.082V32.313c0-.773-.01-1.526-.103-2.248-.966-7.525-4.982-12.958-11.926-16.154-.176-.083-.363-.155-.53-.227l-.705-.299.072-.938c.021-.258.042-.505.052-.742a5.964 5.964 0 00-1.712-4.34 6.028 6.028 0 00-4.328-1.836h-.032a6.05 6.05 0 00-4.317 1.794 5.957 5.957 0 00-1.754 4.31c0 .103.02.216.03.33.053.391.115.865-.155 1.288-.27.412-.716.557-1.08.67a3.135 3.135 0 00-.332.114c-7.493 3.546-11.396 9.463-11.593 17.587-.063 2.65-.052 5.34-.031 7.949 0 1.247.02 2.484.01 3.732 0 1.278-.488 1.804-1.754 1.876-1.671.093-3.062.67-4.245 1.752a6.051 6.051 0 00-1.578 6.68c.913 2.372 3.197 3.97 5.698 3.99 2.647.021 5.294.021 7.94.01h4.765l.176.722c.031.124.062.238.083.35.695 3.393 2.668 5.547 6.04 6.578.26.083.52.134.78.196l.31.072h1.848c.145-.051.25-.072.343-.093 2.667-.433 4.67-1.804 5.947-4.072zM31.326 8.84a3.55 3.55 0 013.975-.34 3.382 3.382 0 011.733 3.432l-.083.63H30.32l-.166-.496c-.353-1.04.145-2.402 1.173-3.237v.01zM12.87 55.096c-1.557 0-2.72-.618-3.456-1.835a3.534 3.534 0 01-.187-3.34 3.822 3.822 0 012.834-2.144c.27-.041.54-.062.81-.083.248-.02.487-.03.726-.082 1.961-.382 3.28-1.99 3.29-4 0-1.444 0-2.877-.01-4.32-.021-2.618-.032-5.33.041-8 .187-6.526 3.353-11.546 9.155-14.515 4.172-2.145 8.884-2.402 13.254-.753 4.453 1.69 8.013 5.258 9.767 9.784a17.373 17.373 0 011.162 6.36c-.01 3.794-.01 7.598 0 11.392 0 2.041 1.287 3.63 3.25 4.041.227.052.456.062.684.073.197.01.384.02.581.051 2.17.279 3.592 1.918 3.457 3.97-.135 1.958-1.775 3.391-3.913 3.391H12.87v.01zm20.676 7.918h-.052c-2.699-.031-5.252-2.165-5.47-4.588l-.073-.783h11.23l-.082.794c-.27 2.494-2.803 4.577-5.553 4.577zM15.227 13.076a1.253 1.253 0 00-.623-.165c-.342 0-.695.154-.986.443-2.563 2.557-4.494 5.454-5.74 8.588-.58 1.453-1.017 2.969-1.37 4.247-.124.464-.062.897.187 1.216.229.29.571.454.986.454.696 0 1.121-.381 1.308-1.165 1.038-4.402 3.187-8.288 6.383-11.536a1.89 1.89 0 00.436-.711c.156-.526-.072-1.083-.58-1.371zM60.658 26.56v-.062c-.02-.092-.031-.226-.062-.35a26.173 26.173 0 00-2.097-5.866 26.747 26.747 0 00-5.013-6.949c-.301-.299-.602-.443-.945-.443-.145 0-.3.031-.456.083-.499.175-.758.505-.83 1.051-.053.413.113.784.55 1.217a23.07 23.07 0 015.24 8.04c.312.805.551 1.64.78 2.444.114.402.228.804.352 1.206.197.65.779 1.01 1.433.918.591-.093 1.017-.619 1.038-1.289h.01z"/></g><path d="M37.169 57.835c.363-.65.623-1.381.892-2.155.135-.381.27-.763.416-1.144l.176-.464h4.473c2.637 0 5.263.01 7.9 0a6.254 6.254 0 004.794-2.268 6.197 6.197 0 001.287-5.175c-.54-2.712-2.937-4.701-5.957-4.97-1.505-.133-1.9-.556-1.9-2.082V28.784c0-.774-.01-1.526-.104-2.248-.965-7.526-4.982-12.959-11.925-16.155-.177-.082-.364-.154-.53-.226l-.706-.3.073-.937c.02-.258.042-.506.052-.743a5.964 5.964 0 00-1.713-4.34A6.028 6.028 0 0030.07 2h-.03c-1.64 0-3.167.64-4.319 1.794a5.957 5.957 0 00-1.754 4.31c0 .102.021.216.031.329.052.392.115.866-.155 1.289-.27.412-.716.556-1.08.67-.114.03-.228.072-.332.113-7.494 3.546-11.396 9.464-11.594 17.588-.062 2.65-.051 5.34-.03 7.948 0 1.248.02 2.485.01 3.732 0 1.278-.488 1.804-1.754 1.877-1.671.092-3.062.67-4.246 1.752a6.051 6.051 0 00-1.577 6.68c.913 2.372 3.197 3.97 5.698 3.99 2.647.02 5.293.02 7.94.01h4.764l.177.722c.03.124.062.237.083.35.695 3.392 2.667 5.547 6.04 6.578.26.082.52.134.779.196l.311.072h1.848c.145-.051.249-.072.342-.093 2.668-.433 4.671-1.804 5.948-4.072zM27.796 5.309a3.55 3.55 0 013.976-.34 3.382 3.382 0 011.733 3.433l-.083.629h-6.633l-.166-.495c-.353-1.041.146-2.402 1.173-3.237v.01zM9.342 51.567c-1.557 0-2.72-.618-3.456-1.835a3.534 3.534 0 01-.187-3.34 3.822 3.822 0 012.833-2.145c.27-.04.54-.061.81-.082.249-.02.488-.031.726-.082 1.962-.382 3.28-1.99 3.29-4 0-1.444 0-2.877-.01-4.32-.02-2.619-.03-5.33.042-8 .187-6.526 3.352-11.547 9.154-14.516 4.173-2.144 8.885-2.402 13.255-.752 4.452 1.69 8.013 5.258 9.767 9.783a17.373 17.373 0 011.162 6.361c-.01 3.794-.01 7.598 0 11.392 0 2.041 1.287 3.629 3.249 4.041.228.052.456.062.685.072.197.01.384.02.581.052 2.17.278 3.591 1.917 3.456 3.969-.135 1.959-1.774 3.392-3.913 3.392H9.342v.01zm20.675 7.917h-.052c-2.698-.03-5.251-2.164-5.47-4.587l-.072-.784h11.23l-.083.794c-.27 2.495-2.802 4.578-5.553 4.578zM11.698 9.546a1.253 1.253 0 00-.623-.165c-.342 0-.695.155-.986.444-2.564 2.556-4.494 5.453-5.74 8.587-.58 1.454-1.017 2.97-1.37 4.248-.124.464-.062.897.187 1.216.228.289.571.454.986.454.696 0 1.121-.382 1.308-1.165 1.038-4.402 3.186-8.289 6.383-11.536a1.89 1.89 0 00.436-.712c.156-.525-.072-1.082-.581-1.37zM57.129 23.03v-.06c-.021-.094-.032-.228-.063-.351a26.173 26.173 0 00-2.096-5.866 26.748 26.748 0 00-5.013-6.949c-.301-.299-.602-.443-.945-.443-.145 0-.301.03-.457.082-.498.176-.757.505-.83 1.052-.052.412.114.783.55 1.216a23.07 23.07 0 015.242 8.042c.311.804.55 1.639.778 2.443.114.402.228.804.353 1.206a1.27 1.27 0 001.432.918c.592-.093 1.017-.619 1.038-1.29h.01z" fill="#4B8125"/><defs><filter id="filter0_f_1910_11138" x="1.357" y=".529" width="64.404" height="70" filterUnits="userSpaceOnUse" color-interpolation-filters="sRGB"><feFlood flood-opacity="0" result="BackgroundImageFix"/><feBlend in="SourceGraphic" in2="BackgroundImageFix" result="shape"/><feGaussianBlur stdDeviation="2.5" result="effect1_foregroundBlur_1910_11138"/></filter></defs></svg>
